src/lib/packages/icons/src/assets/line/trophy-star.svg

<svg width="24" height="24" viewBox="0 0 24 24" fill="none" xmlns="http://www.w3.org/2000/svg">
<path d="M20 4.25H18.725C18.599 3.128 17.655 2.25 16.5 2.25H7.5C6.345 2.25 5.40202 3.128 5.27502 4.25H4C3.035 4.25 2.25 5.035 2.25 6V7.65002C2.25 10.196 4.18899 11.471 5.81799 11.702C6.76599 13.863 8.813 15.435 11.25 15.706V17.304C9.312 17.561 8.25 18.847 8.25 21V21.75H15.75V21C15.75 18.847 14.688 17.562 12.75 17.304V15.706C15.186 15.435 17.233 13.863 18.182 11.702C19.811 11.471 21.75 10.196 21.75 7.65002V6C21.75 5.035 20.965 4.25 20 4.25ZM3.75 7.65002V6C3.75 5.862 3.862 5.75 4 5.75H5.25V9C5.25 9.347 5.28496 9.68598 5.33496 10.019C4.55296 9.69198 3.75 8.98102 3.75 7.65002ZM14.187 20.25H9.81396C10.015 19.207 10.701 18.75 12.001 18.75C13.301 18.75 13.985 19.207 14.187 20.25ZM12.0031 14.25C12.0021 14.25 12.001 14.249 12 14.249C11.999 14.249 11.9979 14.25 11.9969 14.25C9.10395 14.248 6.75 11.894 6.75 9V4.5C6.75 4.086 7.087 3.75 7.5 3.75H16.5C16.913 3.75 17.25 4.086 17.25 4.5V9C17.25 11.894 14.8961 14.248 12.0031 14.25ZM20.25 7.65002C20.25 8.98102 19.447 9.69198 18.665 10.019C18.716 9.68598 18.75 9.347 18.75 9V5.75H20C20.138 5.75 20.25 5.862 20.25 6V7.65002ZM14.821 6.82703L13.543 6.64203L12.993 5.53302C12.805 5.15302 12.425 4.91699 12 4.91699C11.575 4.91699 11.1951 5.15298 11.0081 5.53198L10.457 6.64203L9.17896 6.82703C8.76795 6.88603 8.43195 7.169 8.30396 7.565C8.17495 7.96 8.28098 8.38603 8.57898 8.67603L9.50195 9.57098L9.29199 10.786C9.21999 11.204 9.38698 11.619 9.72998 11.869C10.072 12.119 10.5199 12.154 10.8979 11.956L12.001 11.379L13.104 11.956C13.267 12.041 13.444 12.084 13.62 12.084C13.849 12.084 14.077 12.012 14.271 11.87C14.615 11.62 14.782 11.205 14.709 10.789L14.499 9.57098L15.422 8.67499C15.721 8.38499 15.826 7.96003 15.697 7.56403C15.568 7.16903 15.232 6.88603 14.821 6.82703ZM11.6479 6.198C11.6479 6.198 11.6479 6.199 11.6479 6.198V6.198ZM13.297 8.64697C13.039 8.89597 12.922 9.25497 12.983 9.60797L13.095 10.258L12.5031 9.948C12.1891 9.784 11.8119 9.784 11.4969 9.948L10.905 10.258L11.017 9.60699C11.078 9.25499 10.96 8.89497 10.704 8.64697L10.2321 8.19L10.886 8.09497C11.239 8.04497 11.544 7.82403 11.703 7.50403L11.999 6.90698L12.295 7.50403C12.454 7.82303 12.76 8.04399 13.111 8.09399L13.766 8.18903L13.297 8.64697Z" fill="currentColor"/>
</svg>

<svg xmlns="http://www.w3.org/2000/svg" width="24" height="24" fill="none"><path fill="currentColor" d="M20 4.25h-1.275a2.245 2.245 0 0 0-2.225-2h-9a2.246 2.246 0 0 0-2.225 2H4c-.965 0-1.75.785-1.75 1.75v1.65c0 2.546 1.939 3.821 3.568 4.052a6.763 6.763 0 0 0 5.432 4.004v1.598c-1.938.257-3 1.543-3 3.696v.75h7.5V21c0-2.153-1.062-3.438-3-3.696v-1.598a6.765 6.765 0 0 0 5.432-4.004c1.629-.231 3.568-1.506 3.568-4.052V6c0-.965-.785-1.75-1.75-1.75ZM3.75 7.65V6A.25.25 0 0 1 4 5.75h1.25V9c0 .347.035.686.085 1.019C4.553 9.692 3.75 8.981 3.75 7.65Zm10.437 12.6H9.814c.201-1.043.887-1.5 2.187-1.5 1.3 0 1.984.457 2.186 1.5Zm-2.184-6L12 14.249l-.003.001A5.256 5.256 0 0 1 6.75 9V4.5a.75.75 0 0 1 .75-.75h9a.75.75 0 0 1 .75.75V9a5.256 5.256 0 0 1-5.247 5.25Zm8.247-6.6c0 1.331-.803 2.042-1.585 2.369.051-.333.085-.672.085-1.019V5.75H20a.25.25 0 0 1 .25.25v1.65Zm-5.429-.823-1.278-.185-.55-1.109A1.1 1.1 0 0 0 12 4.917c-.425 0-.805.236-.992.615l-.551 1.11-1.278.185a1.075 1.075 0 0 0-.875.738c-.129.395-.023.821.275 1.111l.923.895-.21 1.215a1.1 1.1 0 0 0 .438 1.083c.342.25.79.285 1.168.087L12 11.379l1.103.577a1.1 1.1 0 0 0 1.167-.086c.344-.25.511-.665.438-1.081l-.21-1.218.923-.896c.299-.29.404-.715.275-1.111a1.078 1.078 0 0 0-.876-.737Zm-3.173-.629s0 .001 0 0Zm1.649 2.449a1.078 1.078 0 0 0-.314.961l.112.65-.592-.31a1.09 1.09 0 0 0-1.006 0l-.592.31.112-.651a1.081 1.081 0 0 0-.313-.96l-.472-.457.654-.095c.353-.05.658-.271.817-.591l.296-.597.296.597c.159.319.465.54.816.59l.655.095-.469.458Z"/></svg>
